X: 1
T:Bean Tinc\'eara
T:Johnny Allen's
R:reel
H:Also played as a two-part tune, without the middle part.
D:Liam O'Flynn
Z:id:hn-reel-516
M:C|
K:Dmix
~A3B AGFE|DccB cedc|A2BG AGFE|DG~G2 DG~G2|
AGBG AGFG|Add^c defg|afge fded|dcAF G2FG:|
|:Addc AGFG|Addg fdec|Addc AGFG|DG~G2 DG~G2|
Addc AGFG|Adde ~f3g|afge fded|dcAF G2FG:|
|:~A3g fded|dcAB cedc|~A3g fded|dcAF G2FG|
~A3g fded|dcAB cdeg|afge fded|dcAF G2FG:|
